X: 928
T: The Sod of Turf.
B:O'Neill's 928
N:"collected by Cronin."
Z:Transcribed by Tom Keays (htkeays@mailbox.syr.edu)
Z:abc 1.6
M:6/8
R:Jig
L:1/8
K:D
d | dcA AGE | c2 A ABc | dcA AGF | DGG GBc |
dcA AGE | c2 A ABc | dcA fga | gec d2 :|
|| d | dcA f2g | aag f2 d | dcA fga | g2 G GBc |
dcA f2g | aag f2 d | dcA fga | gec d2 :|


